X:187
T:Duke of Gloucester’s Quick March,The. RH.187
R:March
S:Rev.R.Harrison’s MS,c1815,Cumbria
O:England
A:Temple Sowerby,Cumbria
Z:vmp.Simon Wilson. Review PJH, 2008.
M:2/4
L:1/8
Q:1/4=110
K:D
A/G/|FAd2|cdeg|(fdcd)|(e/d/c/B/)A2|!
FAd2|cdeg|fd (c/d/e/c/)|d2D:|!
|:g|fdfa|eceg|fefa|(e/d/c/B/) A>g|!
fdfa|eceg|(f/a/)(f/d/) (e/g/)(e/c/)|d2D:|

